X:1
T:Moss Rose [2]. VWMLa.157
R:March
S:Anon. MS, late 18thC, Vaughan Williams Mem. Library
O:England;Yorkshire
Z:vmp/efdss.Simon Wilson. Reviewed PJH 2008.
M:2/4
L:1/8
Q:1/4=100
K:D
.f(f/g/) fe|.d(d/e/) dA|B>d c/d/e/c/|d/c/d/e/ d/A/F/A/|
.f(f/g/) fe|.d(d/e/) dA|B>d c/d/e/c/|d2 D2:|
|:"P"f>g .a.f|.b.g .e.a|.f.d .B.g|ec A>g|
"^F"f>g af|bg e>g|{g}f.e/.d/ {g}e.d/.c/|d2 D2:|

